X:1
T:Title
%%score ( 1 2 ) { 3 | 4 }
L:1/8
Q:1/4=90
M:2/4
K:Eb
V:1 treble nm="Grand Piano, Soprano"
V:2 treble 
V:3 bass nm="Choir Pad, Newbury (Haydn), HM"
V:4 bass 
V:1
 E2 [EB][EB] | [EB][EB] [Ee]2 | [EG]2 [EF][EF] | [DA][FA] [FA]2 | [EG][DF] [EG][EB] | %5
w: Generated~by~NoteWorthy~Composer * *|||||
 [FB][FB] [Ee]2 | [E=A]2 [DB][Gc] | [Fd][Ec] [DB]2 | [Fd]2 eB | [DA][EG] c2 | B[Fd] eB | %11
w: ||||||
 [DA][EG] [EG]2 | [DF][DF] G>A | B[EB] c>d | e[Ec] B>A | G[DF] E2- | E4 |] %17
w: ||||||
V:2
 x4 | x4 | x4 | x4 | x4 | x4 | x4 | x4 | z2 E2 | z2 E2- | E z E2 | x4 | z2 E2- | E z E2- | %14
 E z E2- | E z z2 | x4 |] %17
V:3
 G,2 G,G, | F,F, G,2 | B,2 CC | B,B, B,2- | B,B, B,G, | F,F, G,2 | F,2 F,G, | B,=A, B,2 | B,2 B,2 | %9
 B,2 A,2 | G,B, B,2 | B,2 B,2- | B,B, B,>F, | G,G, A,>B, | CA, G,>C | B,A, G,2- | G,4 |] %17
V:4
 E,2 E,E, | D,D, C,2 | B,,2 A,,A,, | B,,B,, E,2- | E,B,, E,E, | D,D, C,2 | z2 B,,E, | F,F, B,,2 | %8
 A,2 G,2 | F,E, E,2- | E,A, G,2 | F,E, B,,2- | B,,B,, E,2- | E,E, A,,2- | A,,A,, B,,2- | %15
 B,,B,, E,2- | E,4 |] %17

